src/assets/buttons/twitter.svg

<svg height="55" viewBox="0 0 55 55" width="55" xmlns="http://www.w3.org/2000/svg"><g fill="none"><rect fill="#141414" height="55" rx="2" width="55"/><path d="m27.3804404 21.8979232.0743703 1.2213522-1.2381997-.1504746c-4.5039677-.5718035-8.4377633-2.5154337-11.7792063-5.7769706l-1.6335363-1.6188559-.4201268 1.1950191c-.8911385 2.6646543-.3222712 5.4797833 1.534376 7.3720014.9889941 1.0457984.767188 1.1950191-.9407186.5730574-.5936574-.2006328-1.1129445-.3485995-1.1625247-.2746162-.1735306.1755537.4201268 2.4414504.8898337 3.3380282.6445423 1.2451773 1.9558075 2.4652755 3.3910232 3.1875536l1.2134096.5730574-1.4352157.0250791c-1.3869402 0-1.4352156.0250791-1.2877799.5467244.4958018 1.6188559 2.4503046 3.3380282 4.6279182 4.0853853l1.534376.5228993-1.3373601.7962614c-2.0081005 1.1542071-4.2928577 1.7892379-6.632001 1.8433138-1.1129445.0250791-2.0288731.1253955-2.0288731.1993788 0 .2482831 3.0191719 1.6426811 4.7753539 2.1919134 5.2711557 1.6176019 11.5339149.9204029 16.2348986-1.8433139 3.3401382-1.9687093 6.6815812-5.877287 8.2407473-9.6629771.8415583-2.0176136 1.6831165-5.7029873 1.6831165-7.4723177 0-1.1448609.0743703-1.2940816 1.4600058-2.6646544.8167681-.7962614 1.5839562-1.6677601 1.7326967-1.9172972.2479009-.472741.221806-.472741-1.039879-.0501582-2.1032433.7473572-2.4007244.6482948-1.3608454-.472741.767188-.7975154 1.6831166-2.2420715 1.6831166-2.6646543 0-.0752373-.3718514.0501582-.7919781.2733622-.4462216.249537-1.4352157.6232156-2.1789183.8476735l-1.3360553.4225829-1.2134096-.8213406c-.6667229-.4489158-1.6074416-.946736-2.1019386-1.0959566-1.2629898-.3485995-3.1927025-.2984413-4.3317418.1003164-3.0922374 1.1197818-5.0480449 4.0088941-4.8249341 7.1726225z" fill="#fff"/></g></svg>

<svg xmlns="http://www.w3.org/2000/svg" width="55" height="55" viewBox="0 0 55 55">
  <g fill="none">
    <rect width="55" height="55" fill="#141414" rx="2"/>
    <path fill="#FFF" d="M27.3804404,21.8979232 L27.4548107,23.1192754 L26.216611,22.9688008 C21.7126433,22.3969973 17.7788477,20.4533671 14.4374047,17.1918302 L12.8038684,15.5729743 L12.3837416,16.7679934 C11.4926031,19.4326477 12.0614704,22.2477767 13.9181176,24.1399948 C14.9071117,25.1857932 14.6853056,25.3350139 12.977399,24.7130522 C12.3837416,24.5124194 11.8644545,24.3644527 11.8148743,24.438436 C11.6413437,24.6139897 12.2350011,26.8798864 12.704708,27.7764642 C13.3492503,29.0216415 14.6605155,30.2417397 16.0957312,30.9640178 L17.3091408,31.5370752 L15.8739251,31.5621543 C14.4869849,31.5621543 14.4387095,31.5872334 14.5861452,32.1088787 C15.081947,33.7277346 17.0364498,35.4469069 19.2140634,36.194264 L20.7484394,36.7171633 L19.4110793,37.5134247 C17.4029788,38.6676318 15.1182216,39.3026626 12.7790783,39.3567385 C11.6661338,39.3818176 10.7502052,39.482134 10.7502052,39.5561173 C10.7502052,39.8044004 13.7693771,41.1987984 15.5255591,41.7480307 C20.7967148,43.3656326 27.059474,42.6684336 31.7604577,39.9047168 C35.1005959,37.9360075 38.4420389,34.0274298 40.001205,30.2417397 C40.8427633,28.2241261 41.6843215,24.5387524 41.6843215,22.769422 C41.6843215,21.6245611 41.7586918,21.4753404 43.1443273,20.1047676 C43.9610954,19.3085062 44.7282835,18.4370075 44.877024,18.1874704 C45.1249249,17.7147294 45.09883,17.7147294 43.837145,18.1373122 C41.7339017,18.8846694 41.4364206,18.785607 42.4762996,17.6645712 C43.2434876,16.8670558 44.1594162,15.4224997 44.1594162,14.9999169 C44.1594162,14.9246796 43.7875648,15.0500751 43.3674381,15.2732791 C42.9212165,15.5228161 41.9322224,15.8964947 41.1885198,16.1209526 L39.8524645,16.5435355 L38.6390549,15.7221949 C37.972332,15.2732791 37.0316133,14.7754589 36.5371163,14.6262383 C35.2741265,14.2776388 33.3444138,14.327797 32.2053745,14.7265547 C29.1131371,15.8463365 27.1573296,18.7354488 27.3804404,21.8991772 L27.3804404,21.8979232 Z"/>
  </g>
</svg>
